assets/icons/facebook.svg

<svg fill="none" height="22" viewBox="0 0 14 22" width="14" xmlns="http://www.w3.org/2000/svg"><path d="m13 5.29985h-2.3756-.63085c-.5431 0-.9834.4403-.9834.98345v3.4504h3.98985l-.5844 3.7985h-3.40545v6.9678h-4.3876v-6.9678h-3.62255v-3.7985h3.57575l.0468-3.60555-.00665-.6546c-.02195-2.17246 1.72135-3.95138 3.8938-3.97335.01325-.00013.0265-.0002.03975-.0002h4.45055z" stroke="#64748b" stroke-linejoin="round" stroke-width="2"/></svg>

<svg width="14" height="22" viewBox="0 0 14 22" fill="none" xmlns="http://www.w3.org/2000/svg">
<path d="M13 5.29985H10.6244H9.99355C9.45045 5.29985 9.01015 5.74015 9.01015 6.2833V9.7337H13L12.4156 13.5322H9.01015V20.5H4.62255V13.5322H1V9.7337H4.57575L4.62255 6.12815L4.6159 5.47355C4.59395 3.30109 6.33725 1.52217 8.5097 1.5002C8.52295 1.50007 8.5362 1.5 8.54945 1.5H13V5.29985Z" stroke="#64748B" stroke-width="2" stroke-linejoin="round"/>
</svg>
